assets/icons/qvision/whatshot.svg

<svg width="24" height="24" viewBox="0 0 24 24" fill="none" xmlns="http://www.w3.org/2000/svg">
<g clip-path="url(#clip0_147_6849)">
<path d="M13.5 0.669983C13.5 0.669983 14.24 3.31998 14.24 5.46998C14.24 7.52998 12.89 9.19998 10.83 9.19998C8.76 9.19998 7.2 7.52998 7.2 5.46998L7.23 5.10998C5.21 7.50998 4 10.62 4 14C4 18.42 7.58 22 12 22C16.42 22 20 18.42 20 14C20 8.60998 17.41 3.79998 13.5 0.669983ZM11.71 19C9.93 19 8.49 17.6 8.49 15.86C8.49 14.24 9.54 13.1 11.3 12.74C13.07 12.38 14.9 11.53 15.92 10.16C16.31 11.45 16.51 12.81 16.51 14.2C16.51 16.85 14.36 19 11.71 19Z" fill="#323232"/>
</g>
<defs>
<clipPath id="clip0_147_6849">
<rect width="24" height="24" fill="white"/>
</clipPath>
</defs>
</svg>

<svg xmlns="http://www.w3.org/2000/svg" height="24" viewBox="0 0 24 24" width="24"><path d="M0 0h24v24H0z" fill="none"/><path d="M13.5.67s.74 2.65.74 4.8c0 2.06-1.35 3.73-3.41 3.73-2.07 0-3.63-1.67-3.63-3.73l.03-.36C5.21 7.51 4 10.62 4 14c0 4.42 3.58 8 8 8s8-3.58 8-8C20 8.61 17.41 3.8 13.5.67zM11.71 19c-1.78 0-3.22-1.4-3.22-3.14 0-1.62 1.05-2.76 2.81-3.12 1.77-.36 3.6-1.21 4.62-2.58.39 1.29.59 2.65.59 4.04 0 2.65-2.15 4.8-4.8 4.8z"/></svg>
